X: 1
T: Princess Nancy
M: 6/8
L: 1/8
R: jig
K: Gmaj
B2A BGE|EDE G3|~A2B deg|a2g eag|
ede g3|ged (3efg e| dBG AGE|EDE G2A:|
B2g edB|BAB d2B|ABA AdB|AGA BGE|
G2g edB|BAB d2B|ABA AGE|EDE G2A|
B2g edB|BAB d2B|ABA ABd|e2d ega|
bag age|ged (3efg e| dBG AGE|EDE G2A|
